docs/local/img/sprites/letter.svg

<svg width="37" height="21" viewBox="0 0 37 21" fill="none" xmlns="http://www.w3.org/2000/svg">
<path d="M7.15656 6.41917C7.40604 6.41917 7.6453 6.32006 7.82171 6.14365C7.99812 5.96724 8.09722 5.72798 8.09722 5.4785C8.09722 5.22903 7.99812 4.98976 7.82171 4.81335C7.6453 4.63695 7.40604 4.53784 7.15656 4.53784H0.940663C0.691183 4.53784 0.451922 4.63695 0.275514 4.81335C0.0991052 4.98976 0 5.22903 0 5.4785C0 5.72798 0.0991052 5.96724 0.275514 6.14365C0.451922 6.32006 0.691183 6.41917 0.940663 6.41917H7.15656Z" fill="#3DAE2B"/>
<path d="M7.15769 9.08301H2.23363C1.98415 9.08301 1.74489 9.18211 1.56848 9.35852C1.39207 9.53493 1.29297 9.77419 1.29297 10.0237C1.29297 10.2731 1.39207 10.5124 1.56848 10.6888C1.74489 10.8652 1.98415 10.9643 2.23363 10.9643H7.15769C7.40716 10.9643 7.64643 10.8652 7.82283 10.6888C7.99924 10.5124 8.09835 10.2731 8.09835 10.0237C8.09835 9.77419 7.99924 9.53493 7.82283 9.35852C7.64643 9.18211 7.40716 9.08301 7.15769 9.08301Z" fill="#3DAE2B"/>
<path d="M7.15644 13.6272H3.39379C3.14431 13.6272 2.90505 13.7263 2.72864 13.9027C2.55223 14.0791 2.45312 14.3184 2.45312 14.5679C2.45312 14.8173 2.55223 15.0566 2.72864 15.233C2.90505 15.4094 3.14431 15.5085 3.39379 15.5085H7.15644C7.40592 15.5085 7.64518 15.4094 7.82159 15.233C7.99799 15.0566 8.0971 14.8173 8.0971 14.5679C8.0971 14.3184 7.99799 14.0791 7.82159 13.9027C7.64518 13.7263 7.40592 13.6272 7.15644 13.6272Z" fill="#3DAE2B"/>
<path d="M35.7094 1.46994C35.6956 1.45113 35.6743 1.44235 35.658 1.42479C35.2216 0.974402 34.6992 0.616217 34.1219 0.371473C33.5445 0.126729 32.9238 0.000407924 32.2967 0H14.7728C14.1426 0.000557354 13.5191 0.128378 12.9396 0.375796C12.36 0.623213 11.8364 0.98513 11.4002 1.43984C11.3785 1.45687 11.358 1.4753 11.3387 1.49503C11.3313 1.50888 11.3246 1.52311 11.3187 1.53767C10.5172 2.39747 10.0693 3.52787 10.0645 4.70331V15.3441C10.066 15.9919 10.2021 16.6324 10.4642 17.2248C10.7263 17.8173 11.1087 18.3488 11.5871 18.7857C11.6034 18.8045 11.6084 18.8283 11.626 18.8459C11.6777 18.8888 11.7341 18.9258 11.794 18.9562C12.6272 19.6564 13.6794 20.0425 14.7678 20.0474H32.2967C33.3873 20.0429 34.4416 19.6553 35.2755 18.9525C35.3332 18.9231 35.3875 18.8874 35.4373 18.8459C35.4536 18.8283 35.4598 18.8057 35.4749 18.7882C35.954 18.3512 36.3369 17.8194 36.5995 17.2264C36.862 16.6335 36.9984 15.9925 37 15.3441V4.70331C36.9972 3.51659 36.5429 2.37541 35.7295 1.51133C35.7207 1.49503 35.7195 1.48248 35.7094 1.46994ZM32.2967 1.88133C32.6483 1.88308 32.9963 1.95117 33.3226 2.082L25.2141 8.0759C24.7303 8.4353 24.1437 8.62936 23.541 8.62936C22.9383 8.62936 22.3517 8.4353 21.8679 8.0759L13.7343 2.08702C14.0654 1.95261 14.4192 1.8828 14.7765 1.88133H32.2967ZM14.7728 18.1661C14.447 18.1633 14.1244 18.103 13.8196 17.988L17.3314 14.4762C17.507 14.2985 17.6049 14.0584 17.6035 13.8086C17.6021 13.5588 17.5015 13.3198 17.3239 13.1442C17.1462 12.9686 16.9061 12.8707 16.6563 12.8721C16.4065 12.8735 16.1675 12.9741 15.9919 13.1517L12.3547 16.7889C12.089 16.3546 11.9471 15.8558 11.9445 15.3466V4.70331C11.9478 4.23646 12.0685 3.77794 12.2957 3.37008L20.7454 9.59099C21.552 10.1901 22.53 10.5135 23.5347 10.5135C24.5395 10.5135 25.5175 10.1901 26.3241 9.59099L34.6835 3.42903L34.7612 3.37008C34.9886 3.77833 35.1093 4.2373 35.1124 4.70457V15.3453C35.1099 15.8545 34.9681 16.3534 34.7023 16.7877L31.0651 13.1505C30.8877 12.979 30.6502 12.8841 30.4035 12.8861C30.1569 12.8882 29.9209 12.987 29.7464 13.1613C29.5719 13.3356 29.4729 13.5715 29.4706 13.8181C29.4684 14.0648 29.5631 14.3024 29.7343 14.4799L33.2461 17.9917C32.9413 18.1067 32.6187 18.1669 32.2929 18.1698L14.7728 18.1661Z" fill="#231F20"/>
</svg>

<svg width="37" height="21" viewBox="0 0 37 21" fill="none" xmlns="http://www.w3.org/2000/svg"><path d="M7.157 6.42a.94.94 0 000-1.882H.94a.94.94 0 000 1.881h6.216zm.001 2.663H2.234a.94.94 0 100 1.881h4.924a.94.94 0 100-1.881zm-.002 4.544H3.394a.94.94 0 100 1.881h3.762a.94.94 0 100-1.88z" fill="#3DAE2B"/><path d="M35.71 1.47c-.014-.019-.036-.028-.052-.045A4.685 4.685 0 0032.297 0H14.773A4.68 4.68 0 0011.4 1.44a.63.63 0 00-.061.055.446.446 0 00-.02.043 4.67 4.67 0 00-1.255 3.165v10.641a4.675 4.675 0 001.523 3.442c.016.018.021.042.039.06.052.043.108.08.168.11a4.655 4.655 0 002.974 1.091h17.529a4.652 4.652 0 002.979-1.095.869.869 0 00.161-.106c.017-.018.023-.04.038-.058A4.677 4.677 0 0037 15.344V4.704a4.673 4.673 0 00-1.27-3.193c-.01-.016-.01-.029-.02-.041zm-3.413.411c.351.002.7.07 1.026.201l-8.109 5.994a2.806 2.806 0 01-3.346 0l-8.134-5.989a2.802 2.802 0 011.043-.206h17.52zM14.773 18.166a2.767 2.767 0 01-.953-.178l3.511-3.512a.942.942 0 00-1.34-1.324l-3.636 3.637a2.791 2.791 0 01-.41-1.442V4.703a2.78 2.78 0 01.35-1.333l8.45 6.221a4.678 4.678 0 005.58 0l8.359-6.162.077-.059c.228.408.348.867.351 1.335v10.64a2.79 2.79 0 01-.41 1.443l-3.637-3.638a.94.94 0 00-1.33 1.33l3.511 3.512a2.77 2.77 0 01-.953.178l-17.52-.004z" fill="#231F20"/></svg>
